X:1
T:Title
%%score [ 1 2 3 ]
L:1/8
Q:1/4=120
M:4/4
K:C
V:1 treble nm="Soprano" snm="S"
V:2 treble-8 nm="Tenor" snm="T"
V:3 bass nm="Bass" snm="B"
V:1
"^Though my carriage be but careless" G3 G | A2 c2 _B2 B2 | (A2 A2) A3 A | %3
w: Though my|car- riage be but|care- less, though my|
w: No, my|wits are not so|wild, * but a|
 _B2 B2 c2"^Thomas Weelkes\n(1576-1623)" c2 |[M:4/4] d2 d2 d3 A | _B2 G2 c2 B2 | A4 A4 | %7
w: looks be of the|stern- est, yet my|pas- sions be com-|pare- less,|
w: gen- tle soul may|yoke me, nor my|heart so hard com-|pil- ed,|
 z2 AG ^F4 |: z2 dc | B4 z2 c_B | A4 z2 G2 | d8- | d8 | d2 _B2 A4 |1 B8 :|2 B8- | B8 |] %17
w: when I love,|when I|love, when I|love, I|love||* in ear-|nest.|nest.||
w: but it melts,|but it|melts, but it|melts, if|love||* pro- voke|me.|me.||
V:2
 D3 E | ^F2 A2 D3 E | (^F2 F2) F3 F | G2 _B2 B2 A2 |[M:4/4][K:treble-8] _B2 B2 A2 ^F2 | %5
w: Though my|car- riage be but|care- less, though my|looks be of the|stern- est, yet my|
w: No, my|wits are not so|wild, * but a|gen- tle soul may|yoke me, nor my|
 G2 _B2 A2 G2 | F4 F2 AG | ^F4 z2 dc |: B4 | z2 GF E2 AG | ^F2 =FE D2 E2 | G2 G2 D3 E | %12
w: pas- sions be com-|pare- less, when I|love, when I|love,|when I love, when I|love, when I love I|love, I love, I|
w: heart so hard com-|pil- ed but it|melts, but it|melts,|but it melts, but it|melts, but it melts if|love, if love, if|
 ^F3 G A2 _B2 | A2 G4 ^F2 |1 G4 z2 dc :|2 G8- | G8 |] %17
w: love, I love, I|love, in ear-|nest. When I|nest.||
w: love, if love, if|love pro- voke|me. But it|me.||
V:3
 G,,3 G,, | D,2 A,,2 _B,,2 G,,2 | (D,2 D,2) D,3 D, | G,2 G,2 F,2 F,2 |[M:4/4] _B,,2 B,,2 D,2 D,2 | %5
w: Though my|car- riage be but|care- less, though my|looks be of the|stern- est, yet my|
w: No, my|wits are not so|wild, * but a|gen- tle soul may|yoke me, nor my|
 G,3 G, ^F,2 G,2 | D,8 | D,8 |: G,4 | G,,4 C,4 | z2 D,C, B,,2 C,2 | G,,3 A,, _B,,3 C, | %12
w: pas- sions be com-|pare-|less,|when|I love,|when I love, I|love, I love, I|
w: heart so hard com-|pil-|ed|but|it melts,|but it melts if|love, if love, if|
 D,3 E, ^F,2 G,2 | D,8 |1 G,,8 :|2 G,,8- | G,,8 |] %17
w: love, I love, in|ear-|nest.|nest.||
w: love, if love pro-|voke|me.|me.||

